!! 00008] TT[TB
!! Eigene Aufnahme
!!!OTL: Dong gui gu niang
!!!ARE: Neimeng Xilingele
!! Ethnic Group: Menggu
!! IV, 357
!!!SCT: C0188
!!!YEM: Copyright 1995, estate of Helmut Schaffrath.
**kern
*ICvox
*Ivox
*M2/4
*k[b-]
*F:
{8f
16f
16g
16cc
8a
16g
=1
8f
16f
16g
16cc
8a
16g
=2
8f
8g
8.cc
16dd
=3
16f
16g
16f
16d
4c}
=4
{16d
16f
16d
16c
8A
8c
=5
8d
16f
16g
8a
8c}
=6
{8d
16f
16g
8.a
16g
=7
8f
16f
16g
8.cc
16ff
=8
8dd
8f
[4d
=9
4d]
4r}
==
!!!AGN: Duan ge. Biaoda aiqing
!! Saenger Chao Lun Batou; leichte Variante; 2 Strophen
!!!ONB: ESAC (Essen Associative Code) Database: CHINA
!!!AMT: simple duple
!!!AIN: vox
!!!EED: Helmut Schaffrath
!!!EEV: 1.0
*-
!!!ONB: Tied note syntax fixed by Craig Sapp, 2004/05/03/
